!!!OTL: Peter Unverdorben
!!!ARE: Europa, Mitteleuropa, Deutschland
!!!SCT: A0033
!!!YEM: Copyright 1995, estate of Helmut Schaffrath.
**kern
*ICvox
*Ivox
*M4/2
*k[]
*C:
{2d
=1
2g
4.a
8g
2e
2f
=2
2d
4e
4f
2g}
{2d
=3
2c
2g
4a
4a
4f
4f
=4
4g
4g
2f
2r}
{2e
=5
2.f
4g
2f
4d
4e
=6
4e
4c
4B
4c
4e
4f
8d
8c
4B
=7
1c
2r}
==
!!!AGN: Romanze, Ballade, Lied
!! Melodie und Text aus einer Handschrift des 15. Jahrh. des Klosters
!!    St. Georgen (Bibl. Karlsruhe). Mitgetheilt durch None, Anzeiger VI.
!!    Jahrg. Beil. 2 die Melodie.
!!!ONB: ESAC (Essen Associative Code) Database: ALTDEU
!!!AMT: simple quadruple
!!!AIN: vox
!!!EED: Helmut Schaffrath
!!!EEV: 1.0
*-
